X: 13955
T: Franc A'Phoill
R: jig
M: 6/8
K: Gmajor
|:A2D B2D|Ac/A/G FED|AAA BAF|G3 AFD|
A2D B2D|A2G FED|GAB cAF|G3 AFD:|
|:dfa agf|dcd ecA|GAB cAF|G3 AFA|
d2f afa|geg fdA|GAB cAF|G3 AFA:|
|:d2e d2A|Ade dcA|d2e dcA|G3 AFA|
d2e d2A|Ade c2A|GAB cAF|G3 AFA:|
|:d3 def|def ecA|def dcA|G3 AFA|
def def|def ecA|GAB cAF|G3 AFA:|
|:dDD cDD|BDD ADD|d2D cDD|G3 AFD|
dDD cDD|BDD A3|GAB cAF|G3 AFD:|

